X: 21465
T: Kevin McHugh's
R: jig
M: 6/8
K: Amajor
|:c2 e efe|cBc ABc|BAF EFA|BAF E3|
c2 e efe|cBc ABc|BAF EFA|B3 A3:|
|:c2 c ABc|d2 d Bcd|c3 ABc|Bcd e2 d|
c2 c ABc|d2 d Bcd|BAF EFA|BcB A3:|

